X: 09
T: BOATMAN
B: "FIFTY OLD ENGLISH FOLK DANCE AIRS", Edgar H. Hunt ed., Schott & Co. Ltd. pub., London 1939
Z: 2004-2014 John Chambers <jc:trillian.mit.edu>
M: 6/8
L: 1/8
K: C
|:\
(GE2) G2G | (GE2) G2G | c2c (B2A) | d3 D3 |\
(GE2) G2G | (GE2) G2G | (c2d) (ed2) | c3 C3 :|
|:\
(c2d) (e2d) | (c2B) (A2G) | F2F (E2D) | d3 D2D |\
(GE2) G2G | (GE2) G2G | (c2d) (ed2) | c3 C3 :|

%%sep 1 1 500
%%sep 1 1 500
